packages/core/src/svgs/tokens/mono/XSP.svg

<svg width="24" height="24" viewBox="0 0 24 24" fill="none" xmlns="http://www.w3.org/2000/svg">
<path d="M2.62196 6.04017V3.12669C2.62196 2.22639 3.62231 1.69496 4.36005 2.18887C6.79837 3.82067 11.0311 6.56535 12.0002 6.56535C12.963 6.56535 17.2832 3.7394 19.6465 2.18887C19.8158 2.08053 20.011 2.01953 20.2119 2.01221C20.4128 2.00489 20.6121 2.05151 20.7889 2.14724C20.9655 2.24297 21.1135 2.3843 21.2172 2.55656C21.3209 2.7288 21.3765 2.92567 21.3782 3.12669V5.45247C21.3782 5.80884 21.2095 6.14646 20.9094 6.34652C18.8149 7.70323 14.7574 9.76023 14.7574 11.5546C14.7574 13.7615 18.2585 15.6434 20.6342 16.5562C21.0719 16.7312 21.3782 17.1502 21.3782 17.6316V20.9202C21.3815 21.1151 21.3308 21.3071 21.2322 21.4752C21.1335 21.6432 20.9905 21.7809 20.8188 21.8733C20.6471 21.9656 20.4534 22.009 20.2587 21.9985C20.0641 21.9881 19.8761 21.9243 19.7152 21.8142C16.8267 19.7885 12.913 16.8313 12.0002 16.8313C11.0873 16.8313 7.17349 19.7885 4.28502 21.8142C4.12417 21.9243 3.93614 21.9881 3.74151 21.9985C3.54686 22.009 3.3531 21.9656 3.18142 21.8733C3.00973 21.7809 2.86674 21.6432 2.76806 21.4752C2.66939 21.3071 2.61885 21.1151 2.62196 20.9202V18.0567C2.62196 17.644 2.85329 17.2627 3.21591 17.0689C8.2176 14.3805 9.24301 12.905 9.24301 11.8358C9.24301 10.0915 5.69175 8.05335 3.36596 7.11553C2.92831 6.93423 2.62196 6.51534 2.62196 6.04017Z" fill="white"/>
<path d="M4.36005 2.18895C4.19106 2.07677 3.99476 2.01261 3.79213 2.00336C3.5895 1.99411 3.38816 2.04011 3.20965 2.13642C3.03115 2.23275 2.88217 2.37577 2.77865 2.5502C2.67514 2.72465 2.62098 2.92394 2.62196 3.12677V6.04025C2.62196 6.51542 2.92831 6.93431 3.37222 7.11561C5.68549 8.05343 9.24301 10.0916 9.24301 11.8359C9.24301 12.8988 8.2176 14.3868 3.21591 17.069C3.03705 17.1647 2.88742 17.3071 2.78287 17.4811C2.67832 17.655 2.62272 17.8539 2.62196 18.0568V20.9203C2.61885 21.1152 2.66939 21.3072 2.76806 21.4753C2.86674 21.6433 3.00973 21.781 3.18142 21.8734C3.3531 21.9657 3.54686 22.009 3.74151 21.9985C3.93614 21.9882 4.12417 21.9244 4.28502 21.8143L6.1294 20.5013C8.21135 19.0196 10.3809 17.4629 11.4811 16.9815C11.2937 16.8439 11.1373 16.7189 10.9936 16.6C10.1646 17.063 9.35724 17.5639 8.57396 18.1006C7.70493 18.6944 6.7421 19.3886 5.79803 20.0574C5.16657 20.5139 4.54761 20.9578 3.97242 21.358C3.63481 21.5892 3.22217 21.358 3.22217 20.9203V18.0568C3.22217 17.8568 3.28469 17.6629 3.47225 17.5566C5.99185 16.2124 7.54862 15.1434 8.48644 14.2493C8.85135 13.9139 9.16701 13.5287 9.4242 13.1051C9.67439 14.043 10.1745 15.0182 10.956 15.8311C11.2186 16.0748 11.6938 16.475 12.3065 16.894C12.3917 16.9271 12.4752 16.9646 12.5566 17.0064V17.0002C13.657 17.5004 15.8077 19.0322 17.8708 20.5013L19.7152 21.8143C19.8761 21.9244 20.0641 21.9882 20.2587 21.9985C20.4534 22.009 20.6471 21.9657 20.8188 21.8734C20.9905 21.781 21.1335 21.6433 21.2322 21.4753C21.3308 21.3072 21.3815 21.1152 21.3782 20.9203V17.6317C21.3782 17.1503 21.0719 16.7313 20.628 16.5625C18.2523 15.6435 14.7574 13.7616 14.7574 11.5608C14.7574 10.1228 17.1768 8.68489 19.2151 7.46573C19.5464 7.27192 19.9778 6.97807 20.3593 6.71548L20.9094 6.3466C21.2095 6.15904 21.3782 5.81518 21.3782 5.45881V3.12677C21.3765 2.92575 21.3209 2.72888 21.2172 2.55664C21.1135 2.38438 20.9655 2.24305 20.7889 2.14732C20.6121 2.05159 20.4128 2.00497 20.2119 2.01229C20.011 2.01961 19.8158 2.08061 19.6465 2.18895C17.6396 3.50815 14.2196 5.74016 12.6441 6.37787C12.8371 6.49446 13.0249 6.61962 13.2068 6.75299L13.4568 6.64046C14.032 6.36536 14.7197 5.98398 15.4388 5.5651C16.5579 4.90863 17.9459 3.98331 19.065 3.23931L19.9466 2.65786C20.3216 2.40778 20.7531 2.68287 20.7531 3.12677V5.45881C20.7531 5.64637 20.7406 5.79642 20.6093 5.88395L20.2967 6.08401C19.9528 6.30284 19.5339 6.56543 18.94 6.98431L18.5524 7.21564C17.8855 7.60723 17.2328 8.02221 16.5955 8.45981C15.9765 8.89122 15.4013 9.35388 14.9699 9.84784C14.8573 9.97286 14.7448 10.1166 14.651 10.2541C14.448 9.09378 13.8519 8.03862 12.963 7.26566C12.5508 6.9494 12.1014 6.68485 11.625 6.4779C11.3469 6.39095 11.0753 6.2844 10.8123 6.15904L10.8185 6.14654C9.11784 5.32125 6.21693 3.43313 4.36005 2.18895ZM12.6879 16.4438H12.6628C11.8133 15.9784 11.1011 15.2979 10.5975 14.4706C10.0938 13.6431 9.81648 12.6979 9.79313 11.7297C9.72632 11.1379 9.47482 10.5822 9.07414 10.1416C8.66775 9.64142 8.10506 9.16001 7.49861 8.7224C6.27385 7.86857 4.95677 7.15549 3.57228 6.59669C3.3222 6.49666 3.24717 6.27158 3.24717 6.03401V3.12677C3.24717 2.67662 3.67857 2.40152 4.05995 2.6516C5.27286 3.47063 6.95467 4.57101 8.44893 5.46507C9.11755 5.87256 9.8016 6.25422 10.4996 6.60919C10.8496 6.7799 11.211 6.92614 11.5812 7.04684C12.6253 7.46573 14.2071 8.83495 14.2071 11.4483V11.5547C14.2071 12.9489 15.2887 14.118 16.4766 14.9933C17.7029 15.8528 19.0326 16.5543 20.4342 17.0814C20.678 17.1752 20.7531 17.394 20.7531 17.6317V20.9203C20.7531 21.358 20.3654 21.5892 20.0278 21.358L18.2022 20.0574C17.2835 19.3958 16.3581 18.7436 15.4262 18.1006C14.6948 17.6003 14.0134 17.1627 13.4568 16.8439C13.1756 16.6813 12.9193 16.5438 12.6879 16.45V16.4438Z" fill="white"/>
</svg>

<svg xmlns="http://www.w3.org/2000/svg" width="24" height="24" fill="none" viewBox="0 0 24 24">
    <path fill="#fff" d="M2.622 6.04V3.127c0-.9 1-1.432 1.738-.938C6.798 3.82 11.031 6.565 12 6.565c.963 0 5.283-2.826 7.647-4.376a1.125 1.125 0 0 1 1.731.938v2.325c0 .357-.169.694-.469.895-2.094 1.356-6.152 3.413-6.152 5.208 0 2.207 3.502 4.088 5.877 5.001.438.175.744.594.744 1.076v3.288a1.062 1.062 0 0 1-1.663.894c-2.888-2.026-6.802-4.983-7.715-4.983s-4.827 2.957-7.715 4.983a1.063 1.063 0 0 1-1.663-.894v-2.863c0-.413.231-.794.594-.988 5.002-2.688 6.027-4.164 6.027-5.233 0-1.745-3.551-3.783-5.877-4.72-.438-.182-.744-.6-.744-1.076"/>
    <path fill="#fff" d="M4.36 2.189a1.12 1.12 0 0 0-1.738.938V6.04c0 .475.306.894.75 1.076 2.313.937 5.871 2.976 5.871 4.72 0 1.063-1.025 2.55-6.027 5.233a1.12 1.12 0 0 0-.594.988v2.863a1.063 1.063 0 0 0 1.663.894l1.844-1.313c2.082-1.481 4.252-3.038 5.352-3.52a10 10 0 0 1-.487-.381q-1.245.695-2.42 1.5c-.87.594-1.832 1.289-2.776 1.957-.631.457-1.25.9-1.826 1.301-.337.231-.75 0-.75-.438v-2.863c0-.2.063-.394.25-.5 2.52-1.345 4.077-2.414 5.014-3.308a5.2 5.2 0 0 0 .938-1.144c.25.938.75 1.913 1.532 2.726.263.244.738.644 1.35 1.063q.13.05.25.112V17c1.101.5 3.252 2.032 5.315 3.501l1.844 1.313a1.062 1.062 0 0 0 1.663-.894v-3.288c0-.482-.306-.9-.75-1.07-2.376-.919-5.87-2.8-5.87-5.001 0-1.438 2.419-2.876 4.457-4.095.331-.194.763-.488 1.144-.75l.55-.37c.3-.187.47-.53.47-.887V3.127a1.124 1.124 0 0 0-1.733-.938c-2.006 1.32-5.426 3.551-7.002 4.189q.289.175.563.375l.25-.113a29 29 0 0 0 1.982-1.075c1.119-.656 2.507-1.582 3.626-2.326l.882-.581c.375-.25.806.025.806.469v2.332c0 .187-.012.337-.144.425l-.312.2c-.344.219-.763.481-1.357.9l-.388.232q-1 .587-1.956 1.244c-.62.431-1.195.894-1.626 1.388a4 4 0 0 0-.319.406 5.13 5.13 0 0 0-1.688-2.988 6.4 6.4 0 0 0-1.338-.788 6 6 0 0 1-.813-.319l.007-.012C9.118 5.32 6.217 3.433 4.36 2.189m8.328 14.255h-.025a5.53 5.53 0 0 1-2.87-4.714 2.83 2.83 0 0 0-.719-1.588c-.406-.5-.969-.982-1.575-1.42a20 20 0 0 0-3.927-2.125c-.25-.1-.325-.325-.325-.563V3.127c0-.45.432-.725.813-.475a102 102 0 0 0 4.389 2.813q1.004.613 2.05 1.144.526.256 1.082.438c1.044.419 2.626 1.788 2.626 4.401v.107c0 1.394 1.082 2.563 2.27 3.438a17.8 17.8 0 0 0 3.957 2.088c.244.094.32.313.32.55v3.29c0 .437-.389.668-.726.437l-1.826-1.3a169 169 0 0 0-2.776-1.957 31 31 0 0 0-1.97-1.257 6 6 0 0 0-.768-.394z"/>
</svg>
